X:153
T:Canty Old Man, The
R:Jig
C:Trad.
S:ABC Tune Finder
M:6/8
L:1/8
K:G
||:D|\
"G" G>AG G>AB  | "C" c<ee e2g | "G" d>BG d>BG | "D" F<AA A2D | !
"G" G>AG G>AB | "C" c<ee e2g |"G" d>BG "D" c>AF | "G" G<GG G2 :|!
B| "D7" c>dc c>AF | "G" d2B d>BG | "C" e2c  "G/B" d>BG  | "D" F<AA A2B |!
"D7" c>dc c>AF | "G/B" d2B d>BG | "C" e>fg "D" B>cA | "G" G<GG G2 B/c/ |!
|" G" d>BG D2B  |"D"  c>AF D2c  | "G" B>GB "C" c>Ac | "A" B>GB "D" A>Bc|!
|"G" d>BG D2B  | "D" c>AF D2c  | "G" B>GB "C" c>Ac | "D" B>cA "G" G2  |]
